X:9
T:Wine Shower
Z:robin.beech@mcgill.ca
R:reel
S:Partners in Crime: Ross Ainslie and Jarlath Henderson
M:4/4
L:1/8
K:D
FDDD ADFD | DDFD GFEG | FDDD DFAD | ABAF GFEG ::
F/E/DFA dAFD | D/F/A=cA ABAG | FFFA dAFD | G/F/EFD EEEG |
FAdA FAdA | GAdA e3g | edec cBAe | ABBd BAGA |]
